X:1
T:Title
%%score { ( 1 3 ) | ( 2 4 ) }
L:1/8
M:6/8
K:Bb
V:1 treble nm="Grand Piano"
V:3 treble 
V:2 bass 
V:4 bass 
V:1
 z3 z2[Q:1/4=95] F | B2 F DCB, | G3 [DF]2 [DF] | [EG][FA][FB] [Ec]2 [Ec] | %4
[M:5/8] [DB]-[DB]- [DB]3 |[M:1/8] [Fd] |[M:3/4] [CFc]2 [CFc]F- [FG][A,FA] | [DFB]3 [CDA]2 [B,DG] | %8
 c[CA] [CF] [DG]2 [=EG] |[M:5/8] F-F- F3 |[M:1/8] F |[M:3/4] A2 Bc AF | [DB]3 [DF]2 [FB] | %13
 [Fe]2 [Fd]d c[=EB] |[M:5/8] c-c- c3 |[M:1/8] F |[M:3/4] d2 dB cd | e3 G2 [Ec] | Bc d c2 c | %19
[M:5/8] [DB]-[DB]- [DB]3 |[M:1/8] F |[M:3/4] c4 z2 | [DB]6[K:bass][K:treble] | G2 A B2 [Gc] | %24
[M:5/8] [^Fd]-[Fd]- [Fd]3 |[M:1/8] [Fd] |[M:3/4] [Fd]4 z2 | [Be]6 | [Bf]d B c2 c | %29
[M:5/8] [DB]-[DB]- [DB]3 |] %30
V:2
 z3 z2 F, | B,2 F, D,C,B,, | [E,B,E]3 [B,,B,]2 [B,,B,] | [E,B,]2 [D,B,] [C,G,]2 [F,A,] | %4
[M:5/8] [B,,B,]-[B,,B,]- [B,,B,]3 |[M:1/8] [B,,B,] |[M:3/4] A,,2 .A,,2 B,D, | G,,3 A,,2 B,, | %8
 .[C,A,]2 [C,A,] [C,B,]2 [C,B,] |[M:5/8] [F,A,]-[F,A,]- [F,A,]3 |[M:1/8] [F,A,] | %11
[M:3/4] [F,CE]2 [F,B,D][F,E]- [F,CE][F,A,E] | [B,,B,]3 [B,,B,]2 [D,B,] | %13
 [C,A,]2 [B,,B,] [G,B,=E]2 [C,C] |[M:5/8] [F,A,F]-[F,A,F]- [F,A,F]3 |[M:1/8] [F,A,] | %16
[M:3/4][K:treble] [B,F]2 [B,F]D [CE][_A,B,F] | [G,B,E]3 [E,B,E]2 [C,C] | %18
 D[CE] [F,B,F] [F,G,E]2 [F,A,E] |[M:5/8] [B,,B,]-[B,,B,]- [B,,B,]3 |[M:1/8] [B,D] | %21
[M:3/4] E2- [F,E-][F,E] [F,A,F][F,A,E] | [B,,B,]2 B,, B,,2 D, | G,2 A, B,2 [E,G,] | %24
[M:5/8] [D,A,]-[D,A,]- [D,A,]3 |[M:1/8] [B,,B,] |[M:3/4] B,2 B,_A,[K:treble] [A,DF][A,D] | %27
 [G,E]2 G, G,2[K:bass] [^F,_D] | D[B,F] [F,B,D] [F,G,E]2 [F,A,E] | %29
[M:5/8] [B,,B,]-[B,,B,]- [B,,B,]3 |] %30
V:3
 x6 | x6 | x6 | x6 |[M:5/8] x5 |[M:1/8] x |[M:3/4] z2 z A, z2 | x6 | F2 z2 z2 |[M:5/8] x5 | %10
[M:1/8] x |[M:3/4] x6 | x6 | x6 |[M:5/8] x5 |[M:1/8] x |[M:3/4] x6 | x6 | x6 |[M:5/8] x5 | %20
[M:1/8] x |[M:3/4] z2 A,A, dc | z2[K:bass] F, F,2[K:treble] D | x6 |[M:5/8] x5 |[M:1/8] x | %26
[M:3/4] z2 z D cB | z2 EB, C[B=e] | x6 |[M:5/8] x5 |] %30
V:4
 x6 | x6 | x6 | x6 |[M:5/8] x5 |[M:1/8] x |[M:3/4] z2 z .D,3 | x6 | x6 |[M:5/8] x5 |[M:1/8] x | %11
[M:3/4] z2 z A, z2 | x6 | x6 |[M:5/8] x5 |[M:1/8] x |[M:3/4][K:treble] z2 z ._A,3 | x6 | %18
 F,2 z2 z2 |[M:5/8] x5 |[M:1/8] x |[M:3/4] [F,A,]2 z2 z2 | x6 | x6 |[M:5/8] x5 |[M:1/8] x | %26
[M:3/4] x4[K:treble] x2 | x5[K:bass] x | F,2 z2 z2 |[M:5/8] x5 |] %30

